img/dark/virtual_machine_running.svg

<svg height="16" viewBox="0 0 16 16" width="16" xmlns="http://www.w3.org/2000/svg">
  <path
    d="m4.5 14c-.27614237 0-.5-.2238576-.5-.5s.22385763-.5.5-.5h1.5v-1h-3c-1.1045695 0-2-.8954305-2-2v-6c0-1.1045695.8954305-2 2-2h10c1.1045695 0 2 .8954305 2 2v6c0 1.1045695-.8954305 2-2 2h-3v1h1.5c.2761424 0 .5.2238576.5.5s-.2238576.5-.5.5zm8.5-11h-10c-.55228475 0-1 .44771525-1 1v6c0 .5522847.44771525 1 1 1h10c.5522847 0 1-.4477153 1-1v-6c0-.55228475-.4477153-1-1-1z"
    fill="#4db04d" fill-rule="evenodd" />
</svg>

<?xml version="1.0" encoding="UTF-8"?>
<svg width="16px" height="16px" viewBox="0 0 16 16" version="1.1" xmlns="http://www.w3.org/2000/svg" xmlns:xlink="http://www.w3.org/1999/xlink">
    <title>virtual_machine_running</title>
    <g id="virtual_machine_running" stroke="none" stroke-width="1" fill="none" fill-rule="evenodd">
        <path d="M4.5,14 C4.22385763,14 4,13.7761424 4,13.5 C4,13.2238576 4.22385763,13 4.5,13 L6,13 L6,12 L3,12 C1.8954305,12 1,11.1045695 1,10 L1,4 C1,2.8954305 1.8954305,2 3,2 L13,2 C14.1045695,2 15,2.8954305 15,4 L15,10 C15,11.1045695 14.1045695,12 13,12 L10,12 L10,13 L11.5,13 C11.7761424,13 12,13.2238576 12,13.5 C12,13.7761424 11.7761424,14 11.5,14 L4.5,14 Z M13,3 L3,3 C2.44771525,3 2,3.44771525 2,4 L2,10 C2,10.5522847 2.44771525,11 3,11 L13,11 C13.5522847,11 14,10.5522847 14,10 L14,4 C14,3.44771525 13.5522847,3 13,3 Z" id="Combined-Shape" fill="#4DB04D"></path>
    </g>
</svg>
